!!!!SEGMENT: pl-sa--63-a-ii-3--001-004-dublet_anonim--sinfonia-in-g-presto-dublet.krn
!!!cenid: 17xx:1825b
!!!COM: Anonim
!!!COM-rismID: pe30004985
!!!CDT:
!!!CNT:
!!!OPR: Sinfonia in G
!!!OTL: Presto [dublet]
!!!OMV: 004
!!!PDT:
!!!AGN: Secular
!!!SMS-siglum: PL-SA
!!!SMS-shelfmark: 63/A II 3
!!!SMS-shelfwork: 001-004 M
!!!SMS-variant:
!!!SMS-altvar:
!!!NIFC-rismSourceID: 1001034986
!!!NIFC-rismChildID: 1001034986
!!!NIFC-islandoraID:
!!!URL-pdf-islandora:
!!!URL-scan: https://bc.bdsandomierz.pl/dlibra/publication/1342/edition/1310/content @EN{Scan in the Sandomierz Diocese Digital Library} @PL{Skany w portalu Cyfrowa Biblioteka Diecezjalna w Sandomierzu}
!!!ONB-nifc: UWAGA: części Sinfonii: Allegro, Andante, Menuet, Presto
!!!AIN: 3 empty 2 oboe 1 viola 2 violn
!!!key:
**kern	**dynam	**kern	**dynam	**kern	**dynam	**kern	**dynam	**kern	**kern	**kern	**kern	**dynam
*part8	*part8	*part7	*part7	*part6	*part6	*part5	*part5	*part4	*part3	*part2	*part1	*part1
*staff8	*	*staff7	*	*staff6	*	*staff5	*	*staff4	*staff3	*staff2	*staff1	*
*Iempty	*	*Iviola	*	*Ivioln	*	*Ivioln	*	*Iempty	*Iempty	*Ioboe	*Ioboe	*
*I"Baſso	*	*I"Viola	*	*I"Violino Secondo	*	*I"Violino Primo	*	*I"Cornu Secondo in G	*I"Cornu Primo in G	*I"Oboe Secondo	*I"Oboe Primo	*
*I'cb	*	*I'vla	*	*I'vl II	*	*I'vl I	*	*I'cor II	*I'cor I	*I'ob II	*I'ob I	*
*group3	*	*group3	*	*group3	*	*group3	*	*group2	*group2	*group1	*group1	*
*clefF4	*	*clefC3	*	*clefG2	*	*clefG2	*	*clefG2	*clefG2	*clefG2	*clefG2	*
*	*	*	*	*	*	*	*	*ITrd3c5	*ITrd3c5	*	*	*
*k[f#]	*	*k[f#]	*	*k[f#]	*	*k[f#]	*	*k[f#]	*k[f#]	*k[f#]	*k[f#]	*
*G:	*	*G:	*	*G:	*	*G:	*	*G:	*G:	*G:	*G:	*
*M6/8	*	*M6/8	*	*M6/8	*	*M6/8	*	*M6/8	*M6/8	*M6/8	*M6/8	*
=1	=1	=1	=1	=1	=1	=1	=1	=1	=1	=1	=1	=1
*2\right	*	*2\right	*	*2\right	*	*2\right	*	*2\right	*2\right	*2\right	*2\right	*
!	!	!	!	!LO:TX:a:t=P:problem=klamra łukowa z numerem	!	!	!	!	!	!	!	!
!LO:TX:a:t=P:problem=4\right&colon; global	!	!	!	!LO:TX:a:t=P:problem=8\right&colon; global	!	!LO:TX:a:t=P:problem=8\right&colon; global	!	!	!LO:TX:a:t=P:problem=4\right&colon; global	!LO:TX:a:t=P:problem=4\right&colon; global	!LO:TX:a:t=P:problem=4\right&colon; global	!
!LO:TX:a:B:t=Presto&colon;	!	!LO:TX:a:B:t=Presto	!	!LO:TX:a:B:t=Preſto	!	!LO:TX:a:B:t=Preſto	!	!LO:TX:a:B:t=Preſto&colon;	!LO:TX:a:B:t=Preſto&colon;	!LO:TX:a:B:t=Preſto	!LO:TX:a:B:t=Preſto	!
4G\	.	4B/	.	8dd\L	.	8dd\L	.	4G/	4g\	4b\	4dd\	.
.	.	.	.	8ee\	.	8ee\	.	.	.	.	.	.
8r	.	8r	.	8dd\J	.	8dd\J	.	8r	8r	8r	8r	.
!	!	!	!	!LO:TX:a:t=P:problem=klamra łukowa z numerem	!	!	!	!	!	!	!	!
4G\	.	4B/	.	8dd\L	.	8dd\L	.	4G/	4g\	4b\	4dd\	.
.	.	.	.	8cc\	.	8cc\	.	.	.	.	.	.
8r	.	8r	.	8b\J	.	8b\J	.	8r	8r	8r	8r	.
=2	=2	=2	=2	=2	=2	=2	=2	=2	=2	=2	=2	=2
!	!	!	!	!LO:TX:a:t=P:problem=4\right&colon; global	!	!LO:TX:a:t=P:problem=4\right&colon; global	!	!	!	!	!	!
4G\	.	4B/	.	4gg\	.	4gg\	.	4G/	4g\	4.b\	4gg\	.
!	!	!	!	!	!	!	!	!	!	!	!LO:TX:a:t=P:problem=8\right&colon; global	!
8r	.	8r	.	8dd\	.	8dd\	.	8r	8r	.	8dd\	.
!	!	!LO:TX:a:t=P:problem=8\right&colon; global	!	!	!	!	!	!	!	!	!	!
4G\	.	8b\L	.	4.dd\	.	4.dd\	.	4G/	4g\	4.b\	4.dd\	.
.	.	8a\	.	.	.	.	.	.	.	.	.	.
8r	.	8g\J	.	.	.	.	.	8r	8r	.	.	.
=3	=3	=3	=3	=3	=3	=3	=3	=3	=3	=3	=3	=3
!	!	!LO:TX:a:t=P:problem=4\right&colon; global	!	!	!	!	!	!LO:TX:a:t=1	!LO:TX:a:t=1	!	!	!
4D\	.	4b\	.	8dd\L	.	8dd\L	.	2.r	2.r	4.b\	4dd\	.
.	.	.	.	8ee\	.	8ee\	.	.	.	.	.	.
8r	.	8r	.	8dd\J	.	8dd\J	.	.	.	.	8r	.
4D\	.	4a\	.	8cc\L	.	8cc\L	.	.	.	4.a/	8cc\L	.
.	.	.	.	8b\	.	8b\	.	.	.	.	8b\	.
8r	.	8r	.	8a\J	.	8a\J	.	.	.	.	8a\J	.
=4	=4	=4	=4	=4	=4	=4	=4	=4	=4	=4	=4	=4
4.G\	.	4.g\	.	4g/	.	4g/	.	4G/	4g\	4.g/	4g/	.
.	.	.	.	8d/	.	8d/	.	8D/	8d/	.	8d/	.
!	!	!LO:N:vis=4	!	!	!	!	!	!	!	!	!	!
4.D\	.	4.d\	.	4.d/	.	4.d/	.	4.D/	4.d/	4.d/	4.d/	.
=5	=5	=5	=5	=5	=5	=5	=5	=5	=5	=5	=5	=5
!	!	!	!	!	!	!	!	!LO:TX:a:t=8	!LO:TX:a:t=8	!LO:TX:a:t=5&colon;	!LO:TX:a:t=4	!
!	!LO:DY:b:t=p&colon;	!	!	!	!	!	!	!LO:N:vis=00	!LO:N:vis=00	!LO:N:vis=00	!LO:N:vis=00	!
4.F#\	p	4.A/	.	4.c/	p	(8c/L	p	0.r	0.r	0.r	0.r	.
.	.	.	.	.	.	8d/)	.	.	.	.	.	.
!	!	!	!	!	!	!LO:TX:a:t=P:global:problem=niejednoznaczny zapis artykulacji [przyjęto staccatissimo]	!	!	!	!	!	!
.	.	.	.	.	.	8d`/J	.	.	.	.	.	.
4.G\	.	4.G/	.	4.B/	.	(8B/L	.	.	.	.	.	.
.	.	.	.	.	.	8d/)	.	.	.	.	.	.
.	.	.	.	.	.	8d`/J	.	.	.	.	.	.
!	!	!LO:LB:g=original	!	!LO:LB:g=original	!	!LO:LB:g=original	!	!	!	!	!	!
=6	=6	=6	=6	=6	=6	=6	=6	=6	=6	=6	=6	=6
4.F#\	.	4.A/	.	(4.c/	.	(8c/L	.	.	.	.	.	.
.	.	.	.	.	.	8d/)	.	.	.	.	.	.
.	.	.	.	.	.	8d'/J	.	.	.	.	.	.
4.G\	.	4.G/	.	4.B/)	.	4.B/	.	.	.	.	.	.
=7	=7	=7	=7	=7	=7	=7	=7	=7	=7	=7	=7	=7
4.A\	.	4.A/	.	(4.c/	.	(8c/L	.	.	.	.	.	.
.	.	.	.	.	.	8d/)	.	.	.	.	.	.
.	.	.	.	.	.	8d`/J	.	.	.	.	.	.
4.G\	.	4.G/	.	4.B/)	.	(8B/L	.	.	.	.	.	.
.	.	.	.	.	.	8d/)	.	.	.	.	.	.
.	.	.	.	.	.	8d`/J	.	.	.	.	.	.
=8	=8	=8	=8	=8	=8	=8	=8	=8	=8	=8	=8	=8
4.F#\	.	(4.A/	.	4.c/	.	(8c/L	.	.	.	.	.	.
.	.	.	.	.	.	8d/)	.	.	.	.	.	.
.	.	.	.	.	.	8d/J	.	.	.	.	.	.
4.G\	.	4.G/)	.	4.B/	.	4.B/	.	.	.	.	.	.
!LO:LB:g=original	!	!	!	!	!	!	!	!	!	!	!	!
=9	=9	=9	=9	=9	=9	=9	=9	=9	=9	=9	=9	=9
!LO:TX:a:t=1	!	!LO:TX:a:t=1	!	!	!	!	!	!LO:N:vis=00	!LO:N:vis=00	!	!	!
2.r	.	2.r	.	8dd\L	f	8dd\L	f	0.r	0.r	2.r	4dd\	.
.	.	.	.	8ee\	.	8ee\	.	.	.	.	.	.
.	.	.	.	8dd\J	.	8dd\J	.	.	.	.	8r	.
.	.	.	.	8dd\L	.	8dd\L	.	.	.	.	4dd\	.
.	.	.	.	8cc\	.	8cc\	.	.	.	.	.	.
.	.	.	.	8b\J	.	8b\J	.	.	.	.	8r	.
=10	=10	=10	=10	=10	=10	=10	=10	=10	=10	=10	=10	=10
4.G\	.	8e\L	.	4bb\	.	4bb\	.	.	.	4.gg\	4.bb\	.
.	.	8g\	.	.	.	.	.	.	.	.	.	.
.	.	8a\J	.	8cc#X\	.	8cc#X\	.	.	.	.	.	.
4.G\	.	8g\L	.	4.cc#\	.	4.cc#\	.	.	.	4.e/	4.cc#X\	.
.	.	8f#\	.	.	.	.	.	.	.	.	.	.
.	.	8e\J	.	.	.	.	.	.	.	.	.	.
=11	=11	=11	=11	=11	=11	=11	=11	=11	=11	=11	=11	=11
.	.	.	.	.	.	8qqee/	.	.	.	.	.	.
4.F#\	f	4.a\	.	8dd\L	.	8dd\L	.	.	.	4.a/	4.dd\	.
.	.	.	.	8cc#X\	.	8cc#X\	.	.	.	.	.	.
.	.	.	.	8b\J	.	8b\J	.	.	.	.	.	.
4F#\	.	8d\L	.	4.a/	.	4.a\	.	.	.	4f#/	4.a/	.
.	.	8e\	.	.	.	.	.	.	.	.	.	.
8G\	.	8c#X\J	.	.	.	.	.	.	.	8e/	.	.
!	!	!	!	!	!	!LO:LB:g=original	!	!	!	!	!LO:LB:g=original	!
=12	=12	=12	=12	=12	=12	=12	=12	=12	=12	=12	=12	=12
.	.	.	.	.	.	8qqee/	.	.	.	.	.	.
4.F#\	.	4.a\	.	8dd\L	.	8dd\L	.	.	.	4.d/	4.dd\	.
.	.	.	.	8cc#X\	.	8cc#X\	.	.	.	.	.	.
.	.	.	.	8b\J	.	8b\J	.	.	.	.	.	.
4F#\	.	8d\L	.	4.a/	.	4.a\	.	.	.	4f#/	4.a/	.
.	.	8e\	.	.	.	.	.	.	.	.	.	.
8G\	.	8c#X\J	.	.	.	.	.	.	.	8e/	.	.
!	!	!LO:LB:g=original	!	!	!	!	!	!	!	!LO:LB:g=original	!	!
=13	=13	=13	=13	=13	=13	=13	=13	=13	=13	=13	=13	=13
4F#\	.	4a\	.	8dd\L	.	8dd\L	.	4d/	4a\	4.d/	4.dd\	.
.	.	.	.	8cc#X\	.	8cc#X\	.	.	.	.	.	.
8G\	.	8g\	.	8b\J	.	8b\J	.	8r	8r	.	.	.
.	.	.	.	.	.	8qqb/	.	.	.	.	.	.
4A\	.	8f#\L	.	8a/L	.	8a/L	.	4d/	4a\	4.a/	4.a/	.
.	.	8e\	.	8g/	.	8g/	.	.	.	.	.	.
8B\	.	8d\J	.	8f#/J	.	8f#/J	.	8r	8r	.	.	.
!	!	!	!	!LO:LB:g=original	!	!	!	!	!	!	!	!
=14	=14	=14	=14	=14	=14	=14	=14	=14	=14	=14	=14	=14
.	.	.	.	8qqa/	.	.	.	.	.	.	.	.
4G\	.	8B/L	.	8g/L	.	8g/L	.	8r	8r	8g/L	8g/L	.
.	.	8A/	.	8f#/	.	8f#/	.	8r	8r	8f#/	8f#/	.
!	!	!	!	!	!	!	!	!LO:TX:a:t=P:problem=8\right&colon; global	!LO:TX:a:t=P:problem=8\right&colon; global	!	!	!
8A\	.	8G/J	.	8e/J	.	8e/J	.	8a\	8a\	8e/J	8e/J	.
4.D\	.	4.F#/	.	4.d/	.	4.d/	.	4.d/	4.a\	4.d/	4.d/	.
!	!	!	!	!	!	!	!	!LO:LB:g=original	!LO:LB:g=original	!	!	!
=15	=15	=15	=15	=15	=15	=15	=15	=15	=15	=15	=15	=15
!	!	!LO:TX:a:t=4	!	!	!	!	!	!LO:TX:a:t=4	!LO:TX:a:t=4	!LO:TX:a:t=4	!LO:TX:a:t=4	!
!	!LO:DY:b:t=p&colon;	!LO:N:vis=00	!	!	!LO:DY:b:t=p&colon;	!	!LO:DY:b:t=p&colon;	!LO:N:vis=00	!LO:N:vis=00	!LO:N:vis=00	!LO:N:vis=00	!
4AA/	p	0.r	.	8r	p	4c#X/	p	0.r	0.r	0.r	0.r	.
.	.	.	.	8A/L	.	.	.	.	.	.	.	.
8BB/	.	.	.	8A/J	.	8d/	.	.	.	.	.	.
4C#X/	.	.	.	8A/L	.	4e/	.	.	.	.	.	.
.	.	.	.	8A/	.	.	.	.	.	.	.	.
8D/	.	.	.	8A/J	.	8f#/	.	.	.	.	.	.
=16	=16	=16	=16	=16	=16	=16	=16	=16	=16	=16	=16	=16
4E\	.	.	.	8A/L	.	4g/	.	.	.	.	.	.
.	.	.	.	8A/	.	.	.	.	.	.	.	.
8C#X\	.	.	.	8A/J	.	8a/	.	.	.	.	.	.
4.D\	.	.	.	8A/L	.	4.f#/	.	.	.	.	.	.
.	.	.	.	8A/	.	.	.	.	.	.	.	.
.	.	.	.	8A/J	.	.	.	.	.	.	.	.
=17	=17	=17	=17	=17	=17	=17	=17	=17	=17	=17	=17	=17
!LO:TX:a:t=P:global:problem=niejednoznaczny zapis artykulacji [przyjęto staccatissimo]	!	!	!	!	!	!	!	!	!	!	!	!
8A`\L	.	.	.	8A/L	.	8c#X`/L	.	.	.	.	.	.
(8A\	.	.	.	8A/	.	(8c#/	.	.	.	.	.	.
8B\J)	.	.	.	8A/J	.	8d/J)	.	.	.	.	.	.
8c#X`\L	.	.	.	8A/L	.	8e`/L	.	.	.	.	.	.
(8c#\	.	.	.	8A/	.	(8e/	.	.	.	.	.	.
8d\J)	.	.	.	8A/J	.	8f#/J)	.	.	.	.	.	.
!LO:LB:g=original	!	!	!	!	!	!LO:LB:g=original	!	!	!	!	!	!
=18	=18	=18	=18	=18	=18	=18	=18	=18	=18	=18	=18	=18
8e`\L	.	.	.	8A/L	.	8g/L	.	.	.	.	.	.
(8e\	.	.	.	8A/	.	8g/	.	.	.	.	.	.
8c#X\J)	.	.	.	8A/J	.	8a/J	.	.	.	.	.	.
4.d\	.	.	.	8A/L	.	4.f#/	.	.	.	.	.	.
.	.	.	.	8A/	.	.	.	.	.	.	.	.
.	.	.	.	8A/J	.	.	.	.	.	.	.	.
=19	=19	=19	=19	=19	=19	=19	=19	=19	=19	=19	=19	=19
4.D\	f	4.d\ 4.a	.	4.ddd\	f	8ddd\L	.	4.d/	4.a\	4.ff#\	4.ddd\	.
.	.	.	.	.	.	8aa\	.	.	.	.	.	.
.	.	.	.	.	.	8ff#\J	.	.	.	.	.	.
4.F#\	.	4.d\ 4.a	.	4.ddd\	.	8ddd\L	.	4.d/	4.a\	4.ff#\	4.ddd\	.
.	.	.	.	.	.	8aa\	.	.	.	.	.	.
.	.	.	.	.	.	8ff#\J	.	.	.	.	.	.
!	!	!	!	!LO:LB:g=original	!	!	!	!	!	!	!	!
=20	=20	=20	=20	=20	=20	=20	=20	=20	=20	=20	=20	=20
!	!	!	!	!	!	!	!	!	!LO:N:vis=4	!	!	!
4.D\	.	4.d\ 4.a	.	4.ddd\	.	8ddd\L	.	4d/	4.a\	4.ff#\	4.ddd\	.
.	.	.	.	.	.	8aa\	.	.	.	.	.	.
.	.	.	.	.	.	8gg\J	.	8r	.	.	.	.
4r	.	4r	.	4r	.	8ff#\L	.	4r	4r	4r	4r	.
.	.	.	.	.	.	8ee\	.	.	.	.	.	.
8r	.	8r	.	8r	.	8dd\J	.	8r	8r	8r	8r	.
=21	=21	=21	=21	=21	=21	=21	=21	=21	=21	=21	=21	=21
!	!	!	!	!	!	!	!	!LO:TX:a:t=P:problem=4\right&colon; global	!	!	!	!
4.G\	.	4.G/	.	4.b\	.	8b\L	.	4g\	4b\	4.gg\	4.bb\	.
.	.	.	.	.	.	8bb\	.	.	.	.	.	.
.	.	.	.	.	.	8aa\J	.	8r	8r	.	.	.
4.A\	.	4.A/	.	8b/L	.	8gg\L	.	4r	4r	4.ee\	4gg\	.
.	.	.	.	8a/	.	8ff#\	.	.	.	.	.	.
.	.	.	.	8g/J	.	8ee\J	.	8r	8r	.	8ee\	.
=22	=22	=22	=22	=22	=22	=22	=22	=22	=22	=22	=22	=22
4.B\	.	4.B/	.	8f#/L	.	8dd\L	.	4r	4r	4.dd\	4dd\	.
.	.	.	.	8g/	.	8ee\	.	.	.	.	.	.
.	.	.	.	8e/J	.	8cc#X\J	.	4r	8r	.	8cc#X\	.
4.F#\	.	4.A/	.	4.f#/	.	4.dd\	.	.	8a\L	4.d/	4.dd\	.
.	.	.	.	.	.	.	.	4d/	8b\	.	.	.
.	.	.	.	.	.	.	.	.	8a\J	.	.	.
!	!	!LO:LB:g=original	!	!	!	!	!	!	!	!	!	!
=23	=23	=23	=23	=23	=23	=23	=23	=23	=23	=23	=23	=23
4.D\	.	4.d\ 4.a	.	4.d\ 4.dd	.	8dd\L	.	4.d/	4.a\	4.f#/	4.dd\	.
.	.	.	.	.	.	8a\	.	.	.	.	.	.
.	.	.	.	.	.	8f#\J	.	.	.	.	.	.
4.F#\	.	4.d\ 4.a	.	4.d\ 4.dd	.	8dd\L	.	4.d/	4.a\	4.f#/	4.dd\	.
.	.	.	.	.	.	8a\	.	.	.	.	.	.
.	.	.	.	.	.	8f#\J	.	.	.	.	.	.
!	!	!	!	!	!	!LO:LB:g=original	!	!	!	!	!	!
=24	=24	=24	=24	=24	=24	=24	=24	=24	=24	=24	=24	=24
4.D\	.	4.d\ 4.a	.	4dd\	.	8dd\L	.	4.d/	4a\	4.f#/	4dd\	.
.	.	.	.	.	.	8a\	.	.	.	.	.	.
.	.	.	.	8r	.	8g\J	.	.	8r	.	8r	.
4r	.	4r	.	4r	.	8f#/L	.	4r	4r	4r	4r	.
.	.	.	.	.	.	8e/	.	.	.	.	.	.
8r	.	8r	.	8r	.	8d/J	.	8r	8r	8r	8r	.
!	!	!	!	!	!	!	!	!	!	!LO:LB:g=original	!LO:LB:g=original	!
=25	=25	=25	=25	=25	=25	=25	=25	=25	=25	=25	=25	=25
!	!	!	!	!	!	!LO:TX:a:t=P:problem=mixed beam	!	!	!	!	!	!
4.GG/	.	4.G/	.	4.B/	.	8B/L	.	4g\	4.b\	4.b/	4.dd\	.
.	.	.	.	.	.	8b\	.	.	.	.	.	.
.	.	.	.	.	.	8a\J	.	8r	.	.	.	.
4.AA/	.	4.A/	.	8e/L	.	8g/L	.	4r	4r	4.g/	4.cc#X\	.
.	.	.	.	8d/	.	8f#/	.	.	.	.	.	.
.	.	.	.	8c#X/J	.	8e/J	.	8r	8r	.	.	.
!	!	!	!	!	!	!	!	!LO:LB:g=original	!	!	!	!
=26	=26	=26	=26	=26	=26	=26	=26	=26	=26	=26	=26	=26
4.D\	.	4.F#/	.	8d/L	.	4.d/	.	4.d/	4.a\	4.f#/	4.dd\	.
.	.	.	.	8f#/	.	.	.	.	.	.	.	.
.	.	.	.	8a/J	.	.	.	.	.	.	.	.
4r	.	4r	.	8aa\L	.	8aa\L	.	4r	4r	4.ff#\	4.aa\	.
.	.	.	.	8ff#\	.	8ff#\	.	.	.	.	.	.
8r	.	8r	.	8dd\J	.	8dd\J	.	8r	8r	.	.	.
!LO:LB:g=original	!	!	!	!LO:LB:g=original	!	!	!	!	!LO:LB:g=original	!	!	!
=27	=27	=27	=27	=27	=27	=27	=27	=27	=27	=27	=27	=27
*	*	*	*	*^	*	*	*	*	*	*	*	*
!LO:TX:a:t=P:problem=mixed beam	!	!	!	!	!	!	!	!	!LO:TX:a:t=1	!LO:TX:a:t=1	!	!	!
8GG/L	.	8r	.	4dd/	4f#\	.	4bb\	.	2.r	2.r	4.gg\	4.bb\	.
8G\	.	8G/L	.	.	.	.	.	.	.	.	.	.	.
8F#\J	.	8F#/J	.	8r	8ryy	.	8r	.	.	.	.	.	.
8E\L	.	8E/L	.	4cc#X/	4e\	.	4cc#X\	.	.	.	4.g/	4.cc#X\	.
8A\	.	8A/	.	.	.	.	.	.	.	.	.	.	.
8G\J	.	8G/J	.	8r	8ryy	.	8r	.	.	.	.	.	.
*	*	*	*	*v	*v	*	*	*	*	*	*	*	*
=28	=28	=28	=28	=28	=28	=28	=28	=28	=28	=28	=28	=28
8F#\L	.	8F#/L	.	4.d\ 4.dd	.	4.d/ 4.dd	.	4.d/	4.a\	4.a/	4.dd\	.
8B\	.	8B/	.	.	.	.	.	.	.	.	.	.
8c#X\J	.	8c#X/J	.	.	.	.	.	.	.	.	.	.
4.d\	.	4.d\	.	8aa\L	.	8aa\L	.	4r	4r	4.ff#\	4.aa\	.
.	.	.	.	8ff#\	.	8ff#\	.	.	.	.	.	.
.	.	.	.	8dd\J	.	8dd\J	.	8r	8r	.	.	.
!	!	!LO:LB:g=original	!	!	!	!	!	!	!	!	!	!
=29	=29	=29	=29	=29	=29	=29	=29	=29	=29	=29	=29	=29
*	*	*	*	*^	*	*	*	*	*	*	*	*
!LO:TX:a:t=P:problem=mixed beam	!	!	!	!	!	!	!	!	!LO:TX:a:t=1	!LO:TX:a:t=1	!	!	!
8GG/L	.	8r	.	4dd/	4f#\	.	4bb\	.	2.r	2.r	4.gg\	4.bb\	.
8G\	.	8G/L	.	.	.	.	.	.	.	.	.	.	.
8F#\J	.	8F#/J	.	8r	8ryy	.	8r	.	.	.	.	.	.
8E\L	.	8E/L	.	4cc#X/	4e\	.	4cc#X\	.	.	.	4.g/	4.cc#X\	.
8A\	.	8A/	.	.	.	.	.	.	.	.	.	.	.
8G\J	.	8G/J	.	8r	8ryy	.	8r	.	.	.	.	.	.
*	*	*	*	*v	*v	*	*	*	*	*	*	*	*
=30	=30	=30	=30	=30	=30	=30	=30	=30	=30	=30	=30	=30
8F#\L	.	8F#/L	.	8dd\L	.	8dd\L	.	4d/	4a\	4.a/	4.dd\	.
8A\	.	8A/	.	8ff#\	.	8ddd\	.	.	.	.	.	.
8G\J	.	8G/J	.	8ff#\J	.	8ddd\J	.	8d/	8a\	.	.	.
8F#\L	.	8F#/L	.	8ff#\L	.	8ddd\L	.	4d/	4a\	4.ff#\	4.ddd\	.
8E\	.	8E/	.	8ff#\	.	8ddd\	.	.	.	.	.	.
8D\J	.	8D/J	.	8ff#\J	.	8ddd\J	.	8d/	8a\	.	.	.
!	!	!	!	!	!	!LO:LB:g=original	!	!	!	!	!	!
=31	=31	=31	=31	=31	=31	=31	=31	=31	=31	=31	=31	=31
4.d\	.	4.d\	.	4.d\ 4.a 4.ff#	.	4.ddd\	.	4.d/	4.a\	4.ff#\	4.ddd\	.
!LO:TX:a:t=P:problem=niejednoznaczny zapis kreski taktowej [podwójna / repetycja]	!	!LO:TX:a:t=P:problem=niejednoznaczny zapis kreski taktowej [podwójna / repetycja]	!	!	!	!	!	!	!	!	!	!
!LO:TX:a:t=31	!	!LO:TX:a:t=31&colon;	!	!	!	!	!	!	!	!	!	!
4.D/	.	4.D/	.	4r	.	4r	.	4r	4r	4r	4r	.
!	!	!	!	!	!	!LO:TX:a:t=P:problem=niejednoznaczny zapis kreski taktowej [podwójna / repetycja]	!	!LO:TX:a:t=P:problem=niejednoznaczny zapis kreski taktowej [podwójna / repetycja]	!LO:TX:a:t=P:problem=niejednoznaczny zapis kreski taktowej [podwójna / repetycja]	!LO:TX:a:t=P:problem=niejednoznaczny zapis kreski taktowej [podwójna / repetycja]	!LO:TX:a:t=P:problem=niejednoznaczny zapis kreski taktowej [podwójna / repetycja]	!
!	!	!	!	!LO:TX:a:t=P:problem=niejednoznaczny zapis kreski taktowej [podwójna / repetycja]	!	!LO:TX:a:t=31	!	!LO:TX:a:t=31	!LO:TX:a:t=31	!LO:TX:a:t=31&colon;	!LO:TX:a:t=31	!
.	.	.	.	8r	.	8r	.	8r	8r	8r	8r	.
=32:|!|:	=32:|!|:	=32:|!|:	=32:|!|:	=32:|!|:	=32:|!|:	=32:|!|:	=32:|!|:	=32:|!|:	=32:|!|:	=32:|!|:	=32:|!|:	=32:|!|:
!	!	!LO:TX:a:t=1	!	!LO:TX:a:t=1	!	!LO:TX:a:t=1	!	!LO:TX:a:t=1	!LO:TX:a:t=1	!LO:TX:a:t=1	!LO:TX:a:t=1	!
8D\L	.	2.r	.	2.r	.	2.r	.	2.r	2.r	2.r	2.r	.
8F#\	.	.	.	.	.	.	.	.	.	.	.	.
8G\J	.	.	.	.	.	.	.	.	.	.	.	.
8A\L	.	.	.	.	.	.	.	.	.	.	.	.
8B\	.	.	.	.	.	.	.	.	.	.	.	.
8c\J	.	.	.	.	.	.	.	.	.	.	.	.
!LO:LB:g=original	!	!	!	!	!	!	!	!	!	!LO:LB:g=original	!	!
=33	=33	=33	=33	=33	=33	=33	=33	=33	=33	=33	=33	=33
!	!	!	!	!	!	!	!	!	!	!	!	!LO:DY:b:t=for
4.D\	.	4.d\	.	(4cc\	.	(4aa\	.	2.d/	2.a\	4.a/	4.ff#\	f
.	.	.	.	8a\)	.	8ff#\)	.	.	.	.	.	.
!	!	!	!	!	!	!	!	!	!	!	!LO:N:vis=4	!
4r	.	4r	.	(4cc\	.	(4aa\	.	.	.	4.a/	4.ff#\	.
8r	.	8r	.	8a\)	.	8ff#\)	.	.	.	.	.	.
!	!	!	!	!LO:LB:g=original	!	!	!	!	!	!	!	!
=34	=34	=34	=34	=34	=34	=34	=34	=34	=34	=34	=34	=34
!	!	!LO:TX:a:t=1	!	!LO:TX:a:t=1	!	!LO:TX:a:t=1	!	!LO:TX:a:t=1	!LO:TX:a:t=1	!LO:TX:a:t=1	!LO:TX:a:t=1	!
8D\L	.	2.r	.	2.r	.	2.r	.	2.r	2.r	2.r	2.r	.
8G\	.	.	.	.	.	.	.	.	.	.	.	.
8A\J	.	.	.	.	.	.	.	.	.	.	.	.
8B\L	.	.	.	.	.	.	.	.	.	.	.	.
8c\	.	.	.	.	.	.	.	.	.	.	.	.
8d\J	.	.	.	.	.	.	.	.	.	.	.	.
!	!	!LO:LB:g=original	!	!	!	!	!	!LO:LB:g=original	!	!	!LO:LB:g=original	!
=35	=35	=35	=35	=35	=35	=35	=35	=35	=35	=35	=35	=35
4.D\	.	4.d\	.	(4dd\	.	(4bb\	.	2.g\	2.b\	4.b\	4.gg\	.
.	.	.	.	8b\)	.	8gg\)	.	.	.	.	.	.
4r	.	4r	.	4dd\	.	(4bb\	.	.	.	4.b\	4.gg\	.
8r	.	8r	.	8b\	.	8gg\)	.	.	.	.	.	.
=36	=36	=36	=36	=36	=36	=36	=36	=36	=36	=36	=36	=36
!	!	!LO:TX:a:t=1	!	!LO:TX:a:t=1	!	!LO:TX:a:t=1	!	!LO:TX:a:t=10&colon;	!LO:TX:a:t=10&colon;	!LO:TX:a:t=1	!LO:TX:a:t=1	!
!	!	!	!	!	!	!	!	!LO:N:vis=00	!LO:N:vis=00	!	!	!
8E\L	.	2.r	.	2.r	.	2.r	.	0.r	0.r	2.r	2.r	.
8G#X\	.	.	.	.	.	.	.	.	.	.	.	.
8A\J	.	.	.	.	.	.	.	.	.	.	.	.
8B\L	.	.	.	.	.	.	.	.	.	.	.	.
8c\	.	.	.	.	.	.	.	.	.	.	.	.
8d\J	.	.	.	.	.	.	.	.	.	.	.	.
=37	=37	=37	=37	=37	=37	=37	=37	=37	=37	=37	=37	=37
4.E\	.	4.e\	.	(4dd\	.	(4bb\	.	.	.	4.b\	4.gg#X\	.
.	.	.	.	8b\)	.	8gg#X\)	.	.	.	.	.	.
4r	.	4r	.	(4dd\	.	(4bb\	.	.	.	4.b\	4.gg#\	.
8r	.	8r	.	8b\)	.	8gg#X\)	.	.	.	.	.	.
=38	=38	=38	=38	=38	=38	=38	=38	=38	=38	=38	=38	=38
!	!	!LO:TX:a:t=1	!	!LO:TX:a:t=1	!	!LO:TX:a:t=1	!	!	!	!LO:TX:a:t=1	!LO:TX:a:t=1	!
8E\L	.	2.r	.	2.r	.	2.r	.	.	.	2.r	2.r	.
8A\	.	.	.	.	.	.	.	.	.	.	.	.
8B\J	.	.	.	.	.	.	.	.	.	.	.	.
8c\L	.	.	.	.	.	.	.	.	.	.	.	.
8d\	.	.	.	.	.	.	.	.	.	.	.	.
8e\J	.	.	.	.	.	.	.	.	.	.	.	.
!	!	!	!	!	!	!LO:LB:g=original	!	!	!	!	!	!
=39	=39	=39	=39	=39	=39	=39	=39	=39	=39	=39	=39	=39
4.E\	.	4.e\	.	(4ee\	.	(4ccc\	.	.	.	[4.cc\	4.aa\	.
.	.	.	.	8cc\)	.	8aa\)	.	.	.	.	.	.
4r	.	4r	.	(4ee\	.	(4ccc\	.	.	.	4.cc\]	4.aa\	.
8r	.	8r	.	8cc\)	.	8aa\)	.	.	.	.	.	.
!LO:LB:g=original	!	!	!	!	!	!	!	!	!	!	!	!
=40	=40	=40	=40	=40	=40	=40	=40	=40	=40	=40	=40	=40
!LO:TX:a:t=P:problem=mixed beam	!	!	!	!	!	!	!	!LO:N:vis=00	!LO:N:vis=00	!LO:SIC:s=4.cc#	!	!
8AA/L	.	8c#X\L	.	4.ee\	.	8eee\L	.	0.r	0.r	4.cc\	4.ee\	.
8A\	.	8c#\	.	.	.	8ee\	.	.	.	.	.	.
8B\J	.	8d\J	.	.	.	8ee\J	.	.	.	.	.	.
!	!	!	!	!	!	!	!	!	!	!LO:SIC:s=4.cc#	!	!
8c#X\L	.	8e\L	.	8a/L	.	4.ee\	.	.	.	4.cc\	4.ee\	.
8B\	.	8d\	.	8a/	.	.	.	.	.	.	.	.
8A\J	.	8c#\J	.	8a/J	.	.	.	.	.	.	.	.
=41	=41	=41	=41	=41	=41	=41	=41	=41	=41	=41	=41	=41
8D\L	.	8d\L	.	8a/L	.	8ffn\L	.	.	.	4.a/	4.ffn\	.
8d\	.	8fn\	.	8a/	.	8ee\	.	.	.	.	.	.
8e\J	.	8g\J	.	8a/J	.	8dd\J	.	.	.	.	.	.
8fn\L	.	8a\L	.	8a/L	.	4.dd\	.	.	.	4.a/	4.ff\	.
8e\	.	8g\	.	8a/	.	.	.	.	.	.	.	.
8d\J	.	8f\J	.	8a/J	.	.	.	.	.	.	.	.
!	!	!LO:LB:g=original	!	!LO:LB:g=original	!	!	!	!	!	!LO:LB:g=original	!	!
=42	=42	=42	=42	=42	=42	=42	=42	=42	=42	=42	=42	=42
!LO:TX:a:t=P:problem=mixed beam	!	!	!	!	!	!	!	!	!	!	!LO:SIC:s=4.ffn:v	!
8GG/L	.	8G/L	.	8b/L	.	8ddd\L	.	.	.	4.a/	4.ff#\	.
8G\	.	8B/	.	8b/	.	8dd\	.	.	.	.	.	.
8A\J	.	8c/J	.	8b/J	.	8dd\J	.	.	.	.	.	.
!	!	!	!	!	!	!	!	!	!	!	!LO:SIC:s=4.ffn:v	!
8B\L	.	8d\L	.	8g/L	.	4.dd\	.	.	.	8a/	4.ff#\	.
8A\	.	8c\	.	8g/	.	.	.	.	.	4dd\	.	.
8G\J	.	8B\J	.	8g/J	.	.	.	.	.	.	.	.
=43	=43	=43	=43	=43	=43	=43	=43	=43	=43	=43	=43	=43
!LO:TX:a:t=P:problem=mixed beam	!	!	!	!	!	!	!	!	!	!	!	!
8C/L	.	8c\L	.	8g/L	.	8ee\L	.	.	.	4.cc\	4.ee\	.
8c\	.	8e\	.	8g/	.	8dd\	.	.	.	.	.	.
8d\J	.	8f#\J	.	8g/J	.	8cc\J	.	.	.	.	.	.
8e\L	.	8g\L	.	8g/L	.	4.cc\	.	.	.	4.cc\	4.ee\	.
8d\	.	8f#\	.	8g/	.	.	.	.	.	.	.	.
8c\J	.	8e\J	.	8g/J	.	.	.	.	.	.	.	.
=44	=44	=44	=44	=44	=44	=44	=44	=44	=44	=44	=44	=44
!	!	!	!	!	!	!	!	!	!	!LO:TX:a:t=2	!LO:TX:a:t=2	!
!	!	!	!	!	!	!	!	!LO:N:vis=0	!LO:N:vis=0	!LO:N:vis=0	!LO:N:vis=0	!
4.AA/	.	4.e\	.	8ccc\L	.	8ccc`\L	.	1.r	1.r	1.r	1.r	.
.	.	.	.	8ccc\	.	(8ccc\	.	.	.	.	.	.
.	.	.	.	8bb\J	.	8bb\J)	.	.	.	.	.	.
4r	.	4r	.	8aa\L	.	8aa`\L	.	.	.	.	.	.
.	.	.	.	8aa\	.	(8aa\	.	.	.	.	.	.
8r	.	8r	.	8gg#X\J	.	8gg#X\J)	.	.	.	.	.	.
!LO:LB:g=original	!	!	!	!	!	!LO:LB:g=original	!	!	!	!	!	!
=45	=45	=45	=45	=45	=45	=45	=45	=45	=45	=45	=45	=45
4.AA/	.	4.c\	.	8aa\L	.	8aa`\L	.	.	.	.	.	.
.	.	.	.	8aa\	.	(8aa\	.	.	.	.	.	.
.	.	.	.	8ggn\J	.	8gg\J)	.	.	.	.	.	.
4r	.	4r	.	8ff#\L	.	8ff#`\L	.	.	.	.	.	.
.	.	.	.	8ff#\	.	(8ff#\	.	.	.	.	.	.
8r	.	8r	.	8ee\J	.	8ee\J)	.	.	.	.	.	.
=46	=46	=46	=46	=46	=46	=46	=46	=46	=46	=46	=46	=46
4.BB/	.	4.B/	.	4.dd#X\	.	8dd#X\L	.	4.B/	4.b\	4.f#/	4.dd#X\	.
.	.	.	.	.	.	8bb\	.	.	.	.	.	.
.	.	.	.	.	.	8dd#\J	.	.	.	.	.	.
8C/L	.	8g\L	.	8a#X/L	.	4.ee\	.	4r	4r	4r	4.ee\	.
8C/	.	8g\	.	8a#/	.	.	.	.	.	.	.	.
8C/J	.	8e\J	.	8a#/J	.	.	.	8r	8r	8r	.	.
!	!	!LO:LB:g=original	!	!	!	!	!	!	!LO:LB:g=original	!	!LO:LB:g=original	!
=47	=47	=47	=47	=47	=47	=47	=47	=47	=47	=47	=47	=47
!	!	!	!	!	!	!	!	!	!	!	!LO:SIC:s=4.dd#:v	!
4.BB/	.	4.f#\	.	4.b\	.	8dd#X\L	.	4.B/	4.b\	4.f#/	4.dd\	.
.	.	.	.	.	.	8bb\	.	.	.	.	.	.
.	.	.	.	.	.	8dd#\J	.	.	.	.	.	.
8C/L	.	8g\L	.	8a#X/L	.	4.ee\	.	4r	4r	4r	4.ee\	.
8C/	.	8g\	.	8a#/	.	.	.	.	.	.	.	.
8C/J	.	8e\J	.	8a#/J	.	.	.	8r	8r	8r	.	.
!	!	!	!	!LO:LB:g=original	!	!	!	!	!	!	!	!
=48	=48	=48	=48	=48	=48	=48	=48	=48	=48	=48	=48	=48
4BB/	.	4f#\	.	4b\	.	8dd#X\L	.	4B/	4b\	4.b\	4.dd#X\	.
.	.	.	.	.	.	8b\	.	.	.	.	.	.
8BB/	.	8B/	.	8b\	.	8b\J	.	8B/	8b\	.	.	.
!	!	!	!	!	!	!LO:TX:a:t=P:problem=mixed beam	!	!	!	!	!	!
4BB/	.	4B/	.	4b\	.	8b\L	.	4B/	4b\	4.b\	4.b\	.
.	.	.	.	.	.	8B/	.	.	.	.	.	.
8BB/	.	8B/	.	8B/	.	8B/J	.	8B/	8b\	.	.	.
=49	=49	=49	=49	=49	=49	=49	=49	=49	=49	=49	=49	=49
4BB/	.	4.B/	.	4.B/	.	4.B/	.	8B/L	8b\L	2.b\	2.b\	.
.	.	.	.	.	.	.	.	8B/	8b\	.	.	.
8F#\	.	.	.	.	.	.	.	8B/J	8b\J	.	.	.
4.B\	.	4r	.	4r	.	4r	.	4.B/	4.b\	.	.	.
.	.	8r	.	8r	.	8r	.	.	.	.	.	.
=50	=50	=50	=50	=50	=50	=50	=50	=50	=50	=50	=50	=50
!LO:TX:a:t=1	!	!LO:TX:a:t=8.	!	!	!	!LO:TX:a:t=1	!	!LO:TX:a:t=8.	!LO:TX:a:t=8	!LO:TX:a:t=8	!LO:TX:a:t=8	!
!	!	!LO:N:vis=00	!	!	!LO:DY:b:t=p&colon;	!	!	!LO:N:vis=00	!LO:N:vis=00	!LO:N:vis=00	!LO:N:vis=00	!
2.r	.	0.r	.	8e/L	p	2.r	.	0.r	0.r	0.r	0.r	.
.	.	.	.	8g#X/	.	.	.	.	.	.	.	.
.	.	.	.	8a/J	.	.	.	.	.	.	.	.
.	.	.	.	8b\L	.	.	.	.	.	.	.	.
.	.	.	.	8cc\	.	.	.	.	.	.	.	.
.	.	.	.	8dd\J	.	.	.	.	.	.	.	.
!	!	!	!	!	!	!LO:LB:g=original	!	!	!	!	!	!
=51	=51	=51	=51	=51	=51	=51	=51	=51	=51	=51	=51	=51
!	!LO:DY:b:t=p&colon;	!	!	!	!	!	!	!	!	!	!	!
(4d\	p	.	.	4.e/	.	(4bb\	p	.	.	.	.	.
8B\)	.	.	.	.	.	8gg#X\)	.	.	.	.	.	.
(4d\	.	.	.	4.e/	.	(4bb\	.	.	.	.	.	.
8B\)	.	.	.	.	.	8gg#\)	.	.	.	.	.	.
=52	=52	=52	=52	=52	=52	=52	=52	=52	=52	=52	=52	=52
!LO:TX:a:t=1	!	!	!	!	!	!LO:TX:a:t=1	!	!	!	!	!	!
2.r	.	.	.	8e/L	.	2.r	.	.	.	.	.	.
.	.	.	.	8a/	.	.	.	.	.	.	.	.
.	.	.	.	8b/J	.	.	.	.	.	.	.	.
.	.	.	.	8cc\L	.	.	.	.	.	.	.	.
.	.	.	.	8dd\	.	.	.	.	.	.	.	.
.	.	.	.	8ee\J	.	.	.	.	.	.	.	.
!LO:LB:g=original	!	!	!	!	!	!	!	!	!	!	!	!
=53	=53	=53	=53	=53	=53	=53	=53	=53	=53	=53	=53	=53
(4e\	.	.	.	4.e/	.	(4ccc\	.	.	.	.	.	.
8c\)	.	.	.	.	.	8aa\)	.	.	.	.	.	.
(4e\	.	.	.	4.e/	.	(4ccc\	.	.	.	.	.	.
8c\)	.	.	.	.	.	8aa\)	.	.	.	.	.	.
=54	=54	=54	=54	=54	=54	=54	=54	=54	=54	=54	=54	=54
!LO:TX:a:t=1	!	!LO:N:vis=00	!	!	!	!LO:TX:a:t=1	!	!LO:N:vis=00	!LO:N:vis=00	!LO:N:vis=00	!LO:N:vis=00	!
2.r	.	0.r	.	8d/L	.	2.r	.	0.r	0.r	0.r	0.r	.
.	.	.	.	8f#/	.	.	.	.	.	.	.	.
.	.	.	.	8g/J	.	.	.	.	.	.	.	.
.	.	.	.	8a/L	.	.	.	.	.	.	.	.
.	.	.	.	8b/	.	.	.	.	.	.	.	.
.	.	.	.	8cc/J	.	.	.	.	.	.	.	.
!	!	!	!	!LO:LB:g=original	!	!	!	!	!	!	!	!
=55	=55	=55	=55	=55	=55	=55	=55	=55	=55	=55	=55	=55
(4c\	.	.	.	4.d/	.	(4aa\	.	.	.	.	.	.
8A\)	.	.	.	.	.	8ff#\)	.	.	.	.	.	.
(4c\	.	.	.	4.d/	.	(4aa\	.	.	.	.	.	.
8A\)	.	.	.	.	.	8ff#\)	.	.	.	.	.	.
=56	=56	=56	=56	=56	=56	=56	=56	=56	=56	=56	=56	=56
!LO:TX:a:t=1	!	!	!	!	!	!LO:TX:a:t=1	!	!	!	!	!	!
2.r	.	.	.	8d/L	.	2.r	.	.	.	.	.	.
.	.	.	.	8g/	.	.	.	.	.	.	.	.
.	.	.	.	8a/J	.	.	.	.	.	.	.	.
.	.	.	.	8b\L	.	.	.	.	.	.	.	.
.	.	.	.	8cc\	.	.	.	.	.	.	.	.
.	.	.	.	8dd\J	.	.	.	.	.	.	.	.
=57	=57	=57	=57	=57	=57	=57	=57	=57	=57	=57	=57	=57
(4d\	.	.	.	4.d/	.	(4bb\	.	.	.	.	.	.
8B\)	.	.	.	.	.	8gg\)	.	.	.	.	.	.
(4d\	.	.	.	4.d/	.	(4bb\	.	.	.	.	.	.
8B\)	.	.	.	.	.	8gg\)	.	.	.	.	.	.
!	!	!	!	!	!	!	!	!	!	!LO:LB:g=original	!	!
=58	=58	=58	=58	=58	=58	=58	=58	=58	=58	=58	=58	=58
4.B\	f	4.g\	f	8dd\L	f	8dd\L	.	4.G/	4.g\	4g/	4dd\	.
.	.	.	.	8ee\	.	8ee\	.	.	.	.	.	.
.	.	.	.	8dd\J	.	8dd\J	.	.	.	8r	8r	.
4.G\	.	4.g\	.	8dd\L	.	8dd\L	.	4.G/	4.g\	4b\	4dd\	.
.	.	.	.	8cc\	.	8cc\	.	.	.	.	.	.
.	.	.	.	8b\J	.	8b\J	.	.	.	8r	8r	.
!	!	!	!	!	!	!LO:LB:g=original	!	!LO:LB:g=original	!	!	!	!
=59	=59	=59	=59	=59	=59	=59	=59	=59	=59	=59	=59	=59
4.B\	.	4.g\	.	4gg\	.	4gg\	.	4.G/	4.g\	4.dd\	4gg\	.
.	.	.	.	8dd\	.	8dd\	.	.	.	.	8dd\	.
4.G\	.	8b\L	.	4.dd\	.	4.dd\	.	4.G/	4.g\	4.b\	4.dd\	.
.	.	8a\	.	.	.	.	.	.	.	.	.	.
.	.	8g\J	.	.	.	.	.	.	.	.	.	.
!	!	!LO:LB:g=original	!	!	!	!	!	!	!	!	!	!
=60	=60	=60	=60	=60	=60	=60	=60	=60	=60	=60	=60	=60
!	!	!	!	!	!	!	!	!LO:TX:a:t=1	!LO:TX:a:t=1	!	!	!
4.D\	.	4.b\	.	8dd\L	.	8dd\L	.	2.r	2.r	4b\	4dd\	.
.	.	.	.	8ee\	.	8ee\	.	.	.	.	.	.
.	.	.	.	8dd\J	.	8dd\J	.	.	.	8r	8r	.
4.F#\	.	4.a\	.	8cc\L	.	8cc\L	.	.	.	4a/	8cc\L	.
.	.	.	.	8b\	.	8b\	.	.	.	.	8b\	.
.	.	.	.	8a\J	.	8a\J	.	.	.	8r	8a\J	.
=61	=61	=61	=61	=61	=61	=61	=61	=61	=61	=61	=61	=61
4.G\	.	4.g\	.	4g/	.	4g/	.	4G/	4g\	4g/	4g/	.
.	.	.	.	8d/	.	8d/	.	8D/	8d/	8d/	8d/	.
4.D\	.	4.d\	.	4.d/	.	4.d/	.	4.D/	4.d/	4.d/	4.d/	.
!LO:LB:g=original	!	!	!	!LO:LB:g=original	!	!	!	!	!	!	!	!
=62	=62	=62	=62	=62	=62	=62	=62	=62	=62	=62	=62	=62
!LO:TX:a:t=1	!	!LO:TX:a:t=1	!	!	!	!	!	!LO:TX:a:t=1	!LO:TX:a:t=1	!LO:TX:a:t=1	!	!
2.r	.	2.r	.	8dd\L	.	8dd\L	.	2.r	2.r	2.r	4dd\	.
.	.	.	.	8ee\	.	8ee\	.	.	.	.	.	.
.	.	.	.	8dd\J	.	8dd\J	.	.	.	.	8r	.
.	.	.	.	8dd\L	.	8dd\L	.	.	.	.	4dd\	.
.	.	.	.	8cc\	.	8cc\	.	.	.	.	.	.
.	.	.	.	8b\J	.	8b\J	.	.	.	.	8r	.
!	!	!	!	!	!	!	!	!	!	!	!LO:LB:g=original	!
=63	=63	=63	=63	=63	=63	=63	=63	=63	=63	=63	=63	=63
4.G\	.	4.dd\	.	4bb\	.	4bb\	.	4.G/	4.g\	4.dd\	4bb\	.
.	.	.	.	8gg\	.	8gg\	.	.	.	.	8gg\	.
4.B\	.	8dd\L	.	4.gg\	.	4.gg\	.	4.G/	4.g\	4.b\	4.gg\	.
.	.	8b\	.	.	.	.	.	.	.	.	.	.
.	.	8g\J	.	.	.	.	.	.	.	.	.	.
!	!	!	!	!	!	!	!	!	!LO:LB:g=original	!	!	!
=64	=64	=64	=64	=64	=64	=64	=64	=64	=64	=64	=64	=64
!LO:TX:a:t=1	!	!LO:TX:a:t=1	!	!	!	!	!	!LO:TX:a:t=1	!LO:TX:a:t=1	!LO:TX:a:t=1	!LO:TX:a:t=1	!
2.r	.	2.r	.	8gg\L	.	8gg\L	.	2.r	2.r	2.r	2.r	.
.	.	.	.	8ff#\	.	8ff#\	.	.	.	.	.	.
.	.	.	.	8ee\J	.	8ee\J	.	.	.	.	.	.
.	.	.	.	8dd\L	.	8dd\L	.	.	.	.	.	.
.	.	.	.	8cc\	.	8cc\	.	.	.	.	.	.
.	.	.	.	8b\J	.	8b\J	.	.	.	.	.	.
!	!	!	!	!	!	!LO:LB:g=original	!	!	!	!	!	!
=65	=65	=65	=65	=65	=65	=65	=65	=65	=65	=65	=65	=65
4d\	.	8d\L	.	4.g/	.	4.b\	.	4.g\	4.b\	4.g/	4.b/	.
.	.	8d\	.	.	.	.	.	.	.	.	.	.
8D/	.	8d\J	.	.	.	.	.	.	.	.	.	.
4.D/	.	8d\L	.	4.f#/	.	4.a\	.	4.d/	4.a\	4.f#/	4.a/	.
.	.	8d\	.	.	.	.	.	.	.	.	.	.
.	.	8d\J	.	.	.	.	.	.	.	.	.	.
!	!	!LO:LB:g=original	!	!	!	!	!	!	!	!LO:LB:g=original	!	!
=66	=66	=66	=66	=66	=66	=66	=66	=66	=66	=66	=66	=66
8D\L	.	4d\	.	4d\ 4a 4ff#	.	4a\ 4aa 4ccc	.	4d/	4.a\	2.a/	2.ff#\	.
8F#\	.	.	.	.	.	.	.	.	.	.	.	.
8G\J	.	8r	.	8r	.	8r	.	8r	.	.	.	.
8A\L	.	4d\	.	4d\ 4a 4ff#	.	4d/ 4a 4ff#	.	4r	4r	.	.	.
8B\	.	.	.	.	.	.	.	.	.	.	.	.
8c\J	.	8r	.	8r	.	8r	.	8r	8r	.	.	.
=67	=67	=67	=67	=67	=67	=67	=67	=67	=67	=67	=67	=67
!	!	!	!	!	!	!	!	!	!	!	!LO:SIC:s=2.gg	!
!	!	!	!	!	!	!	!	!	!	!	!LO:TX:a:t=g	!
8B\L	.	4.d\	.	4.d\ 4.b 4.gg	.	4.d\ 4.b 4.gg	.	4.g\	4.b\	2.b\	2.ff#\	.
8A\	.	.	.	.	.	.	.	.	.	.	.	.
8G\J	.	.	.	.	.	.	.	.	.	.	.	.
4GG/	.	4r	.	4r	.	8ddd\L	.	4r	4r	.	.	.
.	.	.	.	.	.	8bb\	.	.	.	.	.	.
8r	.	8r	.	8r	.	8gg\J	.	8r	8r	.	.	.
!	!	!	!	!	!	!	!	!LO:LB:g=original	!	!	!	!
=68	=68	=68	=68	=68	=68	=68	=68	=68	=68	=68	=68	=68
8D\L	.	4d\	.	4d\ 4a 4ff#	.	4a\ 4aa 4ccc	.	4d/	4a\	2.a\	2.ff#\	.
8F#\	.	.	.	.	.	.	.	.	.	.	.	.
8G\J	.	8r	.	8r	.	8r	.	8r	8r	.	.	.
8A\L	.	4d\	.	4d\ 4a 4ff#	.	4d/ 4a 4ff#	.	4r	4r	.	.	.
8B\	.	.	.	.	.	.	.	.	.	.	.	.
8c\J	.	8r	.	8r	.	8r	.	8r	8r	.	.	.
!	!	!	!	!LO:LB:g=original	!	!	!	!	!	!	!	!
=69	=69	=69	=69	=69	=69	=69	=69	=69	=69	=69	=69	=69
8B\L	.	4.d\	.	4.d\ 4.b 4.gg	.	4d/ 4b 4gg	.	4g\	4.b\	2.b\	2.gg\	.
8A\	.	.	.	.	.	.	.	.	.	.	.	.
8G\J	.	.	.	.	.	8r	.	8r	.	.	.	.
4.BB/	.	4d\	.	4.fn/	.	8dd\L	.	4r	4r	.	.	.
.	.	.	.	.	.	8b\	.	.	.	.	.	.
.	.	8d\	.	.	.	8fn\J	.	8r	8r	.	.	.
=70	=70	=70	=70	=70	=70	=70	=70	=70	=70	=70	=70	=70
!	!	!	!	!	!	!LO:TX:a:t=P:problem=mixed beam	!	!LO:TX:a:t=2	!LO:TX:a:t=2	!LO:TX:a:t=2	!LO:TX:a:t=2	!
!	!	!	!	!	!	!	!	!LO:N:vis=0	!LO:N:vis=0	!LO:N:vis=0	!LO:N:vis=0	!
4.C/	.	4.c\	.	4.e/	.	8e/L	.	1.r	1.r	1.r	1.r	.
.	.	.	.	.	.	8ee\	.	.	.	.	.	.
.	.	.	.	.	.	8dd\J	.	.	.	.	.	.
4.C/	.	4.c\	.	4.e/	.	8cc\L	.	.	.	.	.	.
.	.	.	.	.	.	8b\	.	.	.	.	.	.
.	.	.	.	.	.	8a\J	.	.	.	.	.	.
!	!	!	!	!	!	!LO:LB:g=original	!	!	!	!	!	!
=71	=71	=71	=71	=71	=71	=71	=71	=71	=71	=71	=71	=71
!LO:TX:a:t=1	!	!LO:TX:a:t=1	!	!LO:TX:a:t=1	!	!	!	!	!	!	!	!
2.r	.	2.r	.	2.r	.	8g#X\L	.	.	.	.	.	.
.	.	.	.	.	.	8a\	.	.	.	.	.	.
.	.	.	.	.	.	8b\J	.	.	.	.	.	.
.	.	.	.	.	.	8cc\L	.	.	.	.	.	.
.	.	.	.	.	.	8dd\	.	.	.	.	.	.
.	.	.	.	.	.	8ee\J	.	.	.	.	.	.
!LO:LB:g=original	!	!LO:LB:g=original	!	!	!	!	!	!	!	!	!	!
=72	=72	=72	=72	=72	=72	=72	=72	=72	=72	=72	=72	=72
4.C/	.	4.c\	.	4.cc\	.	(4.ee\	.	4r	4r	4.cc\	4.ee\	.
.	.	.	.	.	.	.	.	8r	8r	.	.	.
!	!	!	!	!	!	!	!	!	!	!LO:TX:a:t=P:problem=8\right&colon; global	!	!
4.D/	.	4.d\	.	4b\	.	4dd\)	.	4r	4r	8b\L	4dd\	.
.	.	.	.	.	.	.	.	.	.	8b\J	.	.
.	.	.	.	8A/	.	8f#/	.	8d/	8a\	8f#/	8f#/	.
!	!	!	!	!	!	!	!	!	!LO:LB:g=original	!	!	!
=73	=73	=73	=73	=73	=73	=73	=73	=73	=73	=73	=73	=73
8c\L	.	4.d\	.	4.A/	.	4.f#/	.	4.d/	4.a\	4.f#/	4.f#/	.
8B\	.	.	.	.	.	.	.	.	.	.	.	.
8A\J	.	.	.	.	.	.	.	.	.	.	.	.
8B\L	.	4.d\	.	4.G/	.	4.g/	.	4.B/	4.g\	4.g/	4.g/	.
8A\	.	.	.	.	.	.	.	.	.	.	.	.
8G\J	.	.	.	.	.	.	.	.	.	.	.	.
!	!	!	!	!	!	!	!	!	!	!	!LO:LB:g=original	!
=74	=74	=74	=74	=74	=74	=74	=74	=74	=74	=74	=74	=74
!	!	!	!	!	!	!	!	!LO:TX:a:t=6&colon;	!LO:TX:a:t=6	!LO:TX:a:t=6&colon;	!LO:TX:a:t=6.	!
!	!	!	!LO:DY:b:t=p&colon;	!	!LO:DY:b:t=p&colon;	!	!	!LO:N:vis=00	!LO:N:vis=00	!LO:N:vis=00	!LO:N:vis=00	!
4.F#\	.	4.A/	p	8d/L	p	8c`/L	p	0.r	0.r	0.r	0.r	.
!	!	!	!	!	!	!LO:TX:a:t=P:problem=niejednoznaczny zapis łuk/ligatura [przyjęto ligatura]	!	!	!	!	!	!
.	.	.	.	8d/	.	[8d/	.	.	.	.	.	.
.	.	.	.	8d/J	.	8d/J]	.	.	.	.	.	.
4.G\	.	8G/L	.	8d/L	.	4B/	.	.	.	.	.	.
.	.	8B/	.	8d/	.	.	.	.	.	.	.	.
.	.	8G/J	.	8d/J	.	8r	.	.	.	.	.	.
=75	=75	=75	=75	=75	=75	=75	=75	=75	=75	=75	=75	=75
4.F#\	.	4.A/	.	8d/L	.	8c`/L	.	.	.	.	.	.
.	.	.	.	8d/	.	[8d/	.	.	.	.	.	.
!	!	!	!	!	!	!LO:TX:a:t=P:problem=niejednoznaczny zapis łuk/ligatura [przyjęto ligatura]	!	!	!	!	!	!
.	.	.	.	8d/J	.	8d/J]	.	.	.	.	.	.
4.G\	.	8G/L	.	8d/L	.	4B/	.	.	.	.	.	.
.	.	8B/	.	8d/	.	.	.	.	.	.	.	.
.	.	8G/J	.	8d/J	.	8r	.	.	.	.	.	.
=76	=76	=76	=76	=76	=76	=76	=76	=76	=76	=76	=76	=76
!	!	!LO:TX:a:t=4	!	!LO:TX:a:t=P:problem=mixed beam	!	!	!	!	!	!	!	!
!	!	!LO:N:vis=00	!	!	!	!	!	!	!	!	!	!
4G\	.	0.r	.	8g/L	.	4B/	.	.	.	.	.	.
.	.	.	.	8gg\	.	.	.	.	.	.	.	.
8A\	.	.	.	8gg\J	.	8c/	.	.	.	.	.	.
!	!	!	!	!LO:TX:a:t=P:problem=mixed beam	!	!	!	!	!	!	!	!
4B\	.	.	.	8gg\L	.	4d/	.	.	.	.	.	.
.	.	.	.	8g/	.	.	.	.	.	.	.	.
8c\	.	.	.	8g/J	.	8e/	.	.	.	.	.	.
!	!	!	!	!LO:LB:g=original	!	!LO:LB:g=original	!	!	!	!	!	!
=77	=77	=77	=77	=77	=77	=77	=77	=77	=77	=77	=77	=77
!	!	!	!	!LO:TX:a:t=P:problem=mixed beam	!	!	!	!	!	!	!	!
4d\	.	.	.	8g/L	.	4fn/	.	.	.	.	.	.
.	.	.	.	8gg\	.	.	.	.	.	.	.	.
8B\	.	.	.	8gg\J	.	8g/	.	.	.	.	.	.
!	!	!	!	!LO:TX:a:t=P:problem=mixed beam	!	!	!	!	!	!	!	!
4.c\	.	.	.	8gg\L	.	4.e/	.	.	.	.	.	.
.	.	.	.	8g/	.	.	.	.	.	.	.	.
.	.	.	.	8g/J	.	.	.	.	.	.	.	.
=78	=78	=78	=78	=78	=78	=78	=78	=78	=78	=78	=78	=78
!	!	!	!	!LO:TX:a:t=P:problem=mixed beam	!	!	!	!LO:N:vis=0	!LO:N:vis=0	!LO:N:vis=0	!LO:N:vis=0	!
8A\L	.	.	.	8a/L	.	8c#X`/L	.	1.r	1.r	1.r	1.r	.
(8A\	.	.	.	8aa\	.	(8c#/	.	.	.	.	.	.
8B\J)	.	.	.	8aa\J	.	8d/J)	.	.	.	.	.	.
!	!	!	!	!LO:TX:a:t=P:problem=mixed beam	!	!	!	!	!	!	!	!
8c#X\L	.	.	.	8aa\L	.	8e`/L	.	.	.	.	.	.
(8c#\	.	.	.	8a/	.	(8e/	.	.	.	.	.	.
8d\J)	.	.	.	8a/J	.	8f#/J)	.	.	.	.	.	.
=79	=79	=79	=79	=79	=79	=79	=79	=79	=79	=79	=79	=79
!	!	!	!	!LO:TX:a:t=P:problem=mixed beam	!	!LO:TX:a:t=P:problem=niejednoznaczny zapis łuk/ligatura [przyjęto ligatura]	!	!	!	!	!	!
8e\L	.	.	.	8a/L	.	[8g/L	.	.	.	.	.	.
(8e\	.	.	.	8aa\	.	8g/]	.	.	.	.	.	.
8c#X\J)	.	.	.	8aa\J	.	8a`/J	.	.	.	.	.	.
!	!	!	!	!LO:TX:a:t=P:problem=mixed beam	!	!	!	!	!	!	!	!
4.d\	.	.	.	8aa\L	.	4.f#/	.	.	.	.	.	.
.	.	.	.	8a/	.	.	.	.	.	.	.	.
.	.	.	.	8a/J	.	.	.	.	.	.	.	.
!LO:LB:g=original	!	!	!	!	!	!	!	!	!	!	!	!
=80	=80	=80	=80	=80	=80	=80	=80	=80	=80	=80	=80	=80
4.G\	.	4.G/	.	4.d\ 4.b 4.gg	f	8gg\L	f	4.G/	4.g\	4.b\	4.gg\	.
.	.	.	.	.	.	8dd\	.	.	.	.	.	.
.	.	.	.	.	.	8b\J	.	.	.	.	.	.
4.B\	.	4.B/	.	4.d\ 4.b 4.gg	.	8gg\L	.	4.G/	4.g\	4.b\	4.gg\	.
.	.	.	.	.	.	8dd\	.	.	.	.	.	.
.	.	.	.	.	.	8b\J	.	.	.	.	.	.
!	!	!	!	!	!	!	!	!LO:LB:g=original	!	!LO:LB:g=original	!	!
=81	=81	=81	=81	=81	=81	=81	=81	=81	=81	=81	=81	=81
4.G\	.	4.G/	.	4.d\ 4.b 4.gg	.	8gg\L	.	4.G/	4.g\	4.b\	4.gg\	.
.	.	.	.	.	.	8dd\	.	.	.	.	.	.
.	.	.	.	.	.	8cc\J	.	.	.	.	.	.
4r	.	4r	.	4r	.	8b/L	.	4r	4r	4r	4r	.
.	.	.	.	.	.	8a/	.	.	.	.	.	.
8r	.	8r	.	8r	.	8g/J	.	8r	8r	8r	8r	.
!	!	!LO:LB:g=original	!	!	!	!LO:PB:g=original	!	!	!	!	!	!
=82	=82	=82	=82	=82	=82	=82	=82	=82	=82	=82	=82	=82
!	!	!	!	!LO:TX:a:t=P:problem=mixed beam	!	!LO:TX:a:t=P:problem=mixed beam	!	!LO:TX:a:t=1	!LO:TX:a:t=1	!	!	!
4.C/	.	4.c\	.	8e/L	.	8e/L	.	2.r	2.r	4.dd\	4.ff#\	.
.	.	.	.	8ee\	.	8ee\	.	.	.	.	.	.
.	.	.	.	8dd\J	.	8dd\J	.	.	.	.	.	.
4.D/	.	4.d\	.	8cc\L	.	8cc\L	.	.	.	4.f#/	4.f#/	.
.	.	.	.	8b\	.	8b\	.	.	.	.	.	.
.	.	.	.	8a\J	.	8a\J	.	.	.	.	.	.
!	!	!	!	!LO:LB:g=original	!	!	!	!	!	!	!	!
=83	=83	=83	=83	=83	=83	=83	=83	=83	=83	=83	=83	=83
4.E\	.	4.e\	.	4.g/	.	8g/L	.	4g\	8a\L	4.g/	4g/	.
.	.	.	.	.	.	8a/	.	.	8a\	.	.	.
.	.	.	.	.	.	8f#/J	.	8d/	8a\J	.	8f#/	.
4.BB/	.	4.B/	.	4.d/	.	4.g/	.	4.G/	4.g\	4.d/	4.g/	.
=84	=84	=84	=84	=84	=84	=84	=84	=84	=84	=84	=84	=84
4.G\	.	4.g\	.	4dd\	.	4bb\	.	4.G/	4.g\	4.b\	4.gg\	.
.	.	.	.	8b\	.	8gg\	.	.	.	.	.	.
4.F#\	.	4.f#\	.	4dd\	.	4bb\	.	4.G/	4.g\	4.b\	4.gg\	.
.	.	.	.	8b\	.	8gg\	.	.	.	.	.	.
=85	=85	=85	=85	=85	=85	=85	=85	=85	=85	=85	=85	=85
4.E\	.	4.e\	.	4.b\	.	8gg\L	.	8G/	4.g\	4.b\	4.gg\	.
.	.	.	.	.	.	8ff#\	.	8r	.	.	.	.
.	.	.	.	.	.	8ee\J	.	4r	.	.	.	.
4r	.	4r	.	4r	.	8dd\L	.	.	4r	4r	4r	.
.	.	.	.	.	.	8cc\	.	4r	.	.	.	.
8r	.	8r	.	8r	.	8b\J	.	.	8r	8r	8r	.
=86	=86	=86	=86	=86	=86	=86	=86	=86	=86	=86	=86	=86
4.C/	.	8c\L	.	4e/	.	8a\L	.	4r	4r	4.a/	4.a/	.
.	.	8c\	.	.	.	8cc\	.	.	.	.	.	.
.	.	8c\J	.	8c/	.	8ee\J	.	8r	8r	.	.	.
!	!	!	!	!	!	!LO:TX:a:t=P:problem=mixed beam	!	!	!	!	!	!
4.D/	.	8d\L	.	8c/L	.	8ee\L	.	4r	4r	4.d/	4.f#/	.
.	.	8d\	.	8B/	.	8dd\	.	.	.	.	.	.
.	.	8d\J	.	8A/J	.	8f#/J	.	8a\	8a\	.	.	.
!	!	!	!	!	!	!LO:LB:g=original	!	!	!LO:LB:g=original	!	!LO:LB:g=original	!
=87	=87	=87	=87	=87	=87	=87	=87	=87	=87	=87	=87	=87
!	!	!LO:SIC:s=4.B	!	!	!	!	!	!	!	!	!	!
.	.	.	.	.	.	8qqf#/	.	.	.	.	.	.
!LO:TX:a:t=P:problem=niepełna miara taktu	!	!	!	!	!	!	!	!	!	!	!	!
!LO:N:vis=8.	!	!	!	!	!	!	!	!	!	!	!	!
4.GG/	.	4.c\	.	8B/L	.	4.g/	.	4.B/	4.g\	4.d/	4.g/	.
.	.	.	.	8d/	.	.	.	.	.	.	.	.
.	.	.	.	8f#/J	.	.	.	.	.	.	.	.
4r	.	4r	.	4dd\	.	8dd\L	.	4r	4r	4r	4r	.
.	.	.	.	.	.	8b\	.	.	.	.	.	.
8r	.	8r	.	8r	.	8g\J	.	8r	8r	8r	8r	.
!	!	!LO:LB:g=original	!	!	!	!	!	!LO:LB:g=original	!	!	!	!
=88	=88	=88	=88	=88	=88	=88	=88	=88	=88	=88	=88	=88
!LO:TX:a:t=P:problem=mixed beam	!	!	!	!	!	!	!	!	!	!	!	!
8C/L	.	8r	.	4g/	.	4ee\	.	4.G/	4.g\	4.g/	4.ee\	.
8c\	.	8c/L	.	.	.	.	.	.	.	.	.	.
8B\J	.	8B/J	.	8r	.	8r	.	.	.	.	.	.
8A\L	.	8A/L	.	4A/ 4f#	.	4f#/	.	4r	4r	4.f#/	4.f#/	.
8d\	.	8d/	.	.	.	.	.	.	.	.	.	.
8c\J	.	8c/J	.	8r	.	8r	.	8r	8r	.	.	.
!	!	!	!	!	!	!	!	!	!	!LO:LB:g=original	!	!
=89	=89	=89	=89	=89	=89	=89	=89	=89	=89	=89	=89	=89
8B\L	.	8B/L	.	4.B/ 4.g	.	4.g/	.	4.B/	4.g\	4.g/	4.g/	.
8A\	.	8A/	.	.	.	.	.	.	.	.	.	.
8G\J	.	8G/J	.	.	.	.	.	.	.	.	.	.
4.BB/	.	4.B/	.	8dd\L	.	8dd\L	.	4r	4r	4r	4r	.
.	.	.	.	8b\	.	8cc\	.	.	.	.	.	.
.	.	.	.	8g\J	.	8g\J	.	8r	8r	8r	8r	.
!LO:LB:g=original	!	!	!	!LO:LB:g=original	!	!	!	!	!	!	!	!
=90	=90	=90	=90	=90	=90	=90	=90	=90	=90	=90	=90	=90
!LO:TX:a:t=P:problem=mixed beam	!	!	!	!	!	!	!	!	!	!	!	!
8C/L	.	8r	.	4g/	.	4.ee\	.	4G/	4g\	4.cc\	4.ee\	.
8c\	.	8c/L	.	.	.	.	.	.	.	.	.	.
8B\J	.	8B/J	.	8r	.	.	.	8r	8r	.	.	.
8A\L	.	8A/L	.	4c/	.	4.f#/	.	4d/	4a\	4.a/	4.ff#\	.
8d\	.	8d/	.	.	.	.	.	.	.	.	.	.
8D/J	.	8c/J	.	8r	.	.	.	8r	8r	.	.	.
=91	=91	=91	=91	=91	=91	=91	=91	=91	=91	=91	=91	=91
!	!	!	!	!LO:TX:a:t=P:problem=mixed beam	!	!LO:TX:a:t=P:problem=mixed beam	!	!	!	!	!	!
4.GG/	.	4.B/	.	8B/L	.	8g/L	.	4.B/	4.g\	4.b\	2.gg\	.
.	.	.	.	8b\	.	8gg\	.	.	.	.	.	.
.	.	.	.	8b\J	.	8gg\J	.	.	.	.	.	.
4r	.	4r	.	8b\L	.	8gg\L	.	4r	4r	4.b\	.	.
.	.	.	.	8b\	.	8gg\	.	.	.	.	.	.
8r	.	8r	.	8b\J	.	8gg\J	.	8r	8r	.	.	.
=92	=92	=92	=92	=92	=92	=92	=92	=92	=92	=92	=92	=92
!LO:TX:a:t=P:problem=mixed beam	!	!LO:TX:a:t=P:problem=mixed beam	!	!	!	!	!	!	!	!	!	!
8GG/L	.	8B/L	.	4.d\ 4.b 4.gg	.	4.d\ 4.b 4.gg	.	4B/	4g\	2.b\	2.gg\	.
8G\	.	8b\	.	.	.	.	.	.	.	.	.	.
8G\J	.	8b\J	.	.	.	.	.	8B/	8g\	.	.	.
8G\L	.	8b\L	.	4.d\ 4.b 4.gg	.	4.d\ 4.b 4.gg	.	4B/	4g\	.	.	.
8G\	.	8b\	.	.	.	.	.	.	.	.	.	.
8G\J	.	8b\J	.	.	.	.	.	8B/	8g\	.	.	.
!	!	!LO:PB:g=original	!	!	!	!LO:LB:g=original	!	!	!	!	!	!
=93	=93	=93	=93	=93	=93	=93	=93	=93	=93	=93	=93	=93
8B\L	.	8d\L	.	4.d\ 4.b 4.gg	.	4.d\ 4.b 4.gg	.	4.B/	4.g\	4.b\	2.gg\	.
8A\	.	8c\	.	.	.	.	.	.	.	.	.	.
8G\J	.	8B\J	.	.	.	.	.	.	.	.	.	.
8B\L	.	8d\L	.	4r	.	4r	.	4r	4r	4.b\	.	.
8A\	.	8c\	.	.	.	.	.	.	.	.	.	.
8G\J	.	8B\J	.	8r	.	8r	.	8r	8r	.	.	.
!	!	!	!	!	!	!	!	!	!LO:LB:g=original	!	!	!
=94	=94	=94	=94	=94	=94	=94	=94	=94	=94	=94	=94	=94
!LO:TX:a:t=P:problem=mixed beam	!	!LO:TX:a:t=P:problem=mixed beam	!	!	!	!	!	!	!	!	!	!
8GG/L	.	8B/L	.	4.G/ 4.d 4.b	.	4.d\ 4.b 4.gg	.	4.B/	4.g\	4b\	4gg\	.
8G\	.	8b\	.	.	.	.	.	.	.	.	.	.
8G\J	.	8b\J	.	.	.	.	.	.	.	8b\	8gg\	.
8G\L	.	8b\L	.	4.G/ 4.d 4.b	.	4.d\ 4.b 4.gg	.	4B/	4.g\	4b\	4gg\	.
8G\	.	8b\	.	.	.	.	.	.	.	.	.	.
8G\J	.	8b\J	.	.	.	.	.	8B/	.	8b\	8gg\	.
!	!	!	!	!	!	!	!	!LO:LB:g=original	!	!	!LO:LB:g=original	!
=95	=95	=95	=95	=95	=95	=95	=95	=95	=95	=95	=95	=95
!	!	!LO:TX:a:t=SIC:n=3:s=4.G	!	!	!	!	!	!	!	!	!	!
4.GG/	.	4.E\ 4.d 4.b	.	4.G/ 4.d 4.b	.	4.d\ 4.b 4.gg	.	4.B/	4.g\	4.b\	4.gg\	.
4r	.	8r	.	4r	.	4r	.	4r	4r	4r	4r	.
!	!	!LO:TX:a:t=64&colon;	!	!	!	!	!	!	!	!	!	!
.	.	4r	.	.	.	.	.	.	.	.	.	.
!	!	!	!	!	!	!LO:TX:b:t=Violino Primo&colon;	!	!	!	!	!	!
!LO:TX:a:t=64&colon;	!	!	!	!LO:TX:a:t=64	!	!LO:TX:a:t=64&colon;	!	!LO:TX:a:t=64&colon;	!LO:TX:a:t=64&colon;	!LO:TX:a:t=64&colon;	!	!
8r	.	.	.	8r	.	8r	.	8r	8r	8r	8r	.
==	==	==	==	==	==	==	==	==	==	==	==	==
*-	*-	*-	*-	*-	*-	*-	*-	*-	*-	*-	*-	*-
!!!system-decoration: [(g1)][(g2)][(g3)]
!!!RDF**dynam: f=for
!!!ENC: Anna Matuszewska
!!!END: 2020-11-27
!!!ENC: Andrzej Kubiczek
!!!END: 2020-06-10
!!!YEC: Copyright 2022 Narodowy Instytut Fryderyka Chopina (https://polishscores.org)
!!!YEM: License CC-BY-4.0 (https://creativecommons.org/licenses/by/4.0)
